!!!COM: Abdallah, Kamildine (et al)
!!!CDT: 1943-1982
!!!OTL: National Anthem, The Comoros (Udzima wa ya Masiwa) (The Union of the Great Islands)
!!!ENC: Davis, Matthew J.
!!Vocal Line Only
**kern
*clefG2
*k[b-]
*F:
*M4/4
=1-
8.cc
16b-
==|:2
!Coda Symbol
2a
8.g
16a
8.b-
16e
=3
2.f
4f
=4
4cc
4cc
8.b-
16a
8.g
16b-
=5
2.a
4f
=6
2dd
8.dd
16ff
8.ee
16dd
=7
2.cc
4f
=8
4b-
8.b-
16a
8.g
16g
8.a
16b-
=9
4a
8.a
16g
8.f
16f
8.g
16a
=10
4.g
8f
8.e
16e
8.f
16g
=11
[2f
8.f]
16f
8.b-
16cc
=12
[2dd
8.dd]
16ff
8.ee
16dd
=13
!First Ending2.cc
4cc
=14
4dd
4dd
8.dd
16dd
8.ee
16ff
=15
[4gg
8.gg]
16ee
2cc
=16
6cc
6cc
6cc
8.cc
16cc
8.cc
16cc
8.b-
16a
=17
1g
=18
6b-
6b-
6b-
8.b-
16b-
8.b-
16b-
8.a
16g
=19
1f
=20
6dd
6dd
6dd
8.dd
16dd
8.dd
16dd
4cc
=21
6cc
6cc
6cc
8.cc
16cc
8.b-
16a
4g
=22
[6b-
6b-]
6b-
8.b-
16b-
8.b-
16b-
8.a
16b-
=23
1cc
=24
[6dd
6dd]
6dd
8.dd
16dd
8.dd
16dd
4cc
=25
[6cc
6cc]
6cc
8.cc
16cc
8.b-
16a
4g
=26
6b-
6b-
6b-
8.b-
16b-
8.b-
16b-
8.a
16g
=27
2.f
8.cc
16b-
!Repeat from measure two to the second ending
==:|28
!Second Ending
[2cc
8.cc]
16cc
8.b-
16dd
=29
4cc
4b-
4g
4a
=30
2.f
==|!
*-
